svgs/sharp-regular/soft-serve.svg

<svg xmlns="http://www.w3.org/2000/svg" viewBox="0 0 384 512"><!--! Font Awesome Pro 6.6.0 by @fontawesome - https://fontawesome.com License - https://fontawesome.com/license (Commercial License) Copyright 2024 Fonticons, Inc. --><path d="M192 0L147.2 0 172 37.3l10.8 16.3c.7 1.1 1.1 2.4 1.1 3.7c0 3.7-3 6.7-6.7 6.7L140 64c-42 0-76 34-76 76l0 20C26.4 175.7 0 212.7 0 256l0 56 0 24 24 0 24 0 0 48 33.8 0L96 512l192 0 14.2-128 33.8 0 0-48 24 0 24 0 0-24 0-56c0-44.5-28-82.5-67.3-97.3c2.1-7.2 3.3-14.8 3.3-22.7l0-8C320 57.3 262.7 0 192 0zM336 288L48 288l0-32c0-27.3 19.5-50 45.3-55l5.3-1 13.4 0 24 0 0-48-24 0 0-12c0-15.5 12.5-28 28-28l37.3 0c29.7 0 53.9-23.7 54.7-53.3c23.9 13.8 40 39.7 40 69.3l0 8c0 5.8-1.5 11.3-4.3 16L216 152l-24 0 0 48 24 0 4.4 0 58.8 0 .8 0c30.9 0 56 25.1 56 56l0 32z"/></svg>

<svg xmlns="http://www.w3.org/2000/svg" viewBox="0 0 384 512"><!--! Font Awesome Pro 6.4.2 by @fontawesome - https://fontawesome.com License - https://fontawesome.com/license (Commercial License) Copyright 2023 Fonticons, Inc. --><path d="M192 0H147.2L172 37.3l10.8 16.3c.7 1.1 1.1 2.4 1.1 3.7c0 3.7-3 6.7-6.7 6.7H140c-42 0-76 34-76 76v20C26.4 175.7 0 212.7 0 256v56 24H24 48v48H81.8L96 512H288l14.2-128H336V336h24 24V312 256c0-44.5-28-82.5-67.3-97.3c2.1-7.2 3.3-14.8 3.3-22.7v-8C320 57.3 262.7 0 192 0zM336 288H48V256c0-27.3 19.5-50 45.3-55l5.3-1H112h24V152H112V140c0-15.5 12.5-28 28-28h37.3c29.7 0 53.9-23.7 54.7-53.3c23.9 13.8 40 39.7 40 69.3v8c0 5.8-1.5 11.3-4.3 16H216 192v48h24 4.4 58.8 .8c30.9 0 56 25.1 56 56v32z"/></svg>
